source/img/svg/icon-telegram.svg

<svg width="24" height="24" viewBox="0 0 24 24" fill="none" xmlns="http://www.w3.org/2000/svg">
<rect width="24" height="24" rx="6" fill="#36AEE2"/>
<circle cx="12" cy="12" r="11" fill="#36AEE2"/>
<path d="M19.0681 5.9392C18.8898 5.72026 18.6229 5.59961 18.3165 5.59961C18.1498 5.59961 17.9734 5.63494 17.7919 5.7045L5.44323 10.4403C4.78791 10.6916 4.69965 11.0687 4.70532 11.2712C4.711 11.4735 4.82041 11.845 5.48887 12.0586C5.49287 12.0599 5.49688 12.061 5.50089 12.0623L7.2327 12.5601L15.6669 8.23103C15.8771 8.12302 16.1346 8.20688 16.242 8.41811C16.3264 8.58404 16.2925 8.77906 16.1723 8.90742L16.1727 8.90776L11.4832 13.9138L11.3494 14.4584L13.024 15.8132L15.3446 17.6905C15.3466 17.6921 15.3486 17.6938 15.3507 17.6954C15.606 17.8944 15.885 17.9995 16.1573 17.9996C16.6895 17.9996 17.1132 17.6039 17.2367 16.9916L19.26 6.95429C19.3411 6.55152 19.273 6.19091 19.0681 5.9392V5.9392Z" fill="white"/>
<path d="M10.9369 13.5026C10.9543 13.4321 10.9894 13.365 11.0427 13.3084L14.1873 9.97607L8.35205 12.9491L9.67703 16.7281C9.75255 16.9434 9.86493 17.1267 10.0039 17.2702L10.9367 13.5024L10.9369 13.5026Z" fill="white"/>
<path d="M10.5408 17.9998C10.9103 17.9973 11.2734 17.8719 11.5916 17.6363L12.729 16.7938L11.2124 15.8115L10.5408 17.9998Z" fill="white"/>
</svg>

<svg width="24" height="24" fill="none" xmlns="http://www.w3.org/2000/svg"><rect width="24" height="24" rx="6" fill="#36AEE2"/><circle cx="12" cy="12" r="11" fill="#36AEE2"/><path d="M19.068 5.94a.946.946 0 00-.752-.34 1.47 1.47 0 00-.524.105L5.443 10.44c-.655.252-.743.629-.738.831.006.202.115.574.784.788l.012.003 1.732.498 8.434-4.329a.426.426 0 01.575.187.43.43 0 01-.07.49l-4.689 5.006-.134.544 1.675 1.355 2.32 1.877.007.005c.255.2.534.305.806.305.532 0 .956-.396 1.08-1.008L19.26 6.954c.081-.402.013-.763-.192-1.015z" fill="#fff"/><path d="M10.937 13.503a.434.434 0 01.106-.195l3.144-3.332-5.835 2.973 1.325 3.78c.076.214.188.398.327.541l.933-3.768zM10.54 18c.37-.003.733-.128 1.052-.364l1.137-.842-1.517-.982L10.541 18z" fill="#fff"/></svg>
